modules/map-icons/icons/restaurant.svg

<svg version="1.2" baseProfile="tiny" xmlns="http://www.w3.org/2000/svg" width="50" height="50" viewBox="0 0 50 50" overflow="inherit"><path d="M22 1.932v11.068h-2v-11c0-.552-.448-1-1-1s-1 .448-1 1v11h-2v-11.036c0-1.287-2-1.243-2-.033v11.069h-2v-10.99c0-1.363-2-1.313-2-.054v14.472c0 2.087 2 3.463 4 3.463v26.109c0 4 6 4 6 0v-26.108c2 0 4-1.662 4-3.227v-14.701c0-1.275-2-1.226-2-.032zm9 3.068v25h2v16c0 4 7 4 7 0v-41c0-5-9-5-9 0z"/></svg>

<svg version="1.2" baseProfile="tiny" xmlns="http://www.w3.org/2000/svg" width="50" height="50" viewBox="0 0 50 50" overflow="inherit"><path d="M22 1.932V13h-2V2a1 1 0 0 0-2 0v11h-2V1.964c0-1.287-2-1.243-2-.033V13h-2V2.01c0-1.363-2-1.313-2-.054v14.472c0 2.087 2 3.463 4 3.463V46c0 4 6 4 6 0V19.892c2 0 4-1.662 4-3.227V1.964c0-1.275-2-1.226-2-.032zM31 5v25h2v16c0 4 7 4 7 0V5c0-5-9-5-9 0z"/></svg>
